Suru++-Ubuntu/apps/scalable/ukuu.svg

<svg width="256" height="256" version="1.1" viewBox="0 0 67.73 67.73" xmlns="http://www.w3.org/2000/svg" xmlns:xlink="http://www.w3.org/1999/xlink">
 <defs>
  <linearGradient id="linearGradient1108" x1="296" x2="296" y1="-212" y2="236" gradientUnits="userSpaceOnUse">
   <stop style="stop-color:#ffffff" offset="0"/>
   <stop style="stop-color:#ffffff;stop-opacity:.09803922" offset=".125"/>
   <stop style="stop-color:#000000;stop-opacity:.09803922" offset=".925"/>
   <stop style="stop-color:#000000;stop-opacity:.49803922" offset="1"/>
  </linearGradient>
  <clipPath id="clipPath1082-3-452">
   <path d="M 361.9375,-212 C 507.2348,-212 528,-191.28677 528,-46.125 V 70.125 C 528,215.28618 507.2348,236 361.9375,236 H 214.0625 C 68.7652,236 48,215.28618 48,70.125 V -46.125 C 48,-191.28677 68.7652,-212 214.0625,-212 Z" style="fill:#8c59d9"/>
  </clipPath>
  <filter id="filter1112" x="-.02" y="-.03" width="1.046" height="1.05" style="color-interpolation-filters:sRGB">
   <feGaussianBlur stdDeviation="2.32"/>
  </filter>
  <filter id="filter4569" x="-.01" y="-.01" width="1.023" height="1.025" style="color-interpolation-filters:sRGB">
   <feGaussianBlur stdDeviation="1.16"/>
  </filter>
  <filter id="filter1076" x="-.04" y="-.05" width="1.087" height="1.107" style="color-interpolation-filters:sRGB">
   <feGaussianBlur stdDeviation="2.719"/>
  </filter>
  <radialGradient id="radialGradient935" cx="33.867" cy="262.635" r="32.365" gradientTransform="matrix(1 0 0 .93333326 0 17.509013)" gradientUnits="userSpaceOnUse">
   <stop style="stop-color:#ffffff" offset="0"/>
   <stop style="stop-color:#009032" offset="1"/>
  </radialGradient>
 </defs>
 <g transform="translate(0,-229.26666)">
  <path transform="matrix(.26970778 0 0 .26970778 -7.1289177 220.56049)" d="m188.96876 43.999995c72.64865 0 83.03125 10.356615 83.03125 82.937505v58.125c0 72.58059-10.3826 82.9375-83.03125 82.9375h-73.9375c-72.648654 0-83.031254-10.35691-83.031254-82.9375v-58.125c0-72.58089 10.3826-82.937505 83.031254-82.937505z" style="filter:url(#filter4569);opacity:.1"/>
  <path transform="matrix(.26970778 0 0 .26970778 -7.1289177 220.56049)" d="m188.96876 45.999995c72.64865 0 83.03125 10.356615 83.03125 82.937505v58.125c0 72.58059-10.3826 82.9375-83.03125 82.9375h-73.9375c-72.648654 0-83.031254-10.35691-83.031254-82.9375v-58.125c0-72.58089 10.3826-82.937505 83.031254-82.937505z" style="filter:url(#filter1112);opacity:.2"/>
  <path d="m43.837426 232.42763c19.593907 0 22.394175 2.79326 22.394175 22.36889v15.67677c0 19.57555-2.800268 22.36888-22.394175 22.36888h-19.94152c-19.593906 0-22.394174-2.79333-22.394174-22.36888v-15.67677c0-19.57563 2.8002681-22.36889 22.394174-22.36889z" style="fill:url(#radialGradient935)"/>
  <path transform="matrix(.13485389 0 0 .13485389 -4.9712557 261.01666)" d="M 361.9375,-212 C 507.2348,-212 528,-191.28677 528,-46.125 V 70.125 C 528,215.28618 507.2348,236 361.9375,236 H 214.0625 C 68.7652,236 48,215.28618 48,70.125 V -46.125 C 48,-191.28677 68.7652,-212 214.0625,-212 Z" clip-path="url(#clipPath1082-3-452)" style="fill:none;opacity:.4;stroke-linecap:round;stroke-linejoin:round;stroke-width:8;stroke:url(#linearGradient1108)"/>
  <g transform="translate(80.217142,2.9506453)">
   <path d="m-13.985544 259.68426v-7.83839c0-19.57555-2.800271-22.36888-22.39417-22.36888h-9.970759v30.20727z" style="fill:#ffffff;opacity:.1"/>
   <path d="m-78.715411 259.68426v7.83839c0 19.57555 2.80027 22.36888 22.394171 22.36888h9.970759v-30.20727z" style="fill:#ffffff;opacity:.1"/>
  </g>
  <g transform="translate(1.9431973,-1.320276)">
   <path transform="matrix(.26458333 0 0 .26458333 -1.9431973 230.58694)" d="m128.74023 65.185547c-1.66475-0.020032-3.32323 0.028717-4.97265 0.144531v0.001953c-19.79303 1.387465-38.20692 12.425132-48.541018 30.324219l8.121094 4.68555c11.678948-20.231247 35.431014-30.069135 57.994144-24.023441 17.06965 4.572742 30.17929 17.361696 35.55468 33.431641l-17.64257 6.79102c5.6392 5.33258 11.64361 10.65934 18.01367 15.98437 6.35181 5.25566 12.69186 10.24226 19.01953 14.95703 1.61086-7.77165 3.00715-15.73792 4.19336-23.89648 1.1522-8.2184 1.99512-16.17916 2.51953-23.882815l-17.35156 6.677735c-6.4471-18.794493-21.88353-33.762004-41.87696-39.119141-4.99132-1.337131-10.03699-2.016078-15.03125-2.076172zm-69.027339 39.562503c-1.610865 7.77161-3.007136 15.7398-4.19336 23.89843-1.152189 8.21859-1.995122 16.17912-2.519531 23.88282l17.347656-6.67774c6.44626 18.79645 21.884028 33.76564 41.878904 39.12305 6.6551 1.78322 13.40623 2.38904 20.00391 1.92578 19.79303-1.38758 38.21083-12.4213 48.54492-30.32031l-8.125-4.68555c-11.67895 20.23113-35.43103 30.06917-57.99414 24.02344-17.071528-4.57322-30.180395-17.36505-35.554688-33.4375l17.642579-6.79102c-5.63863-5.33199-11.642419-10.65985-18.011719-15.98437-6.351821-5.25566-12.691861-10.24241-19.019531-14.95703z" style="fill:#0f0000;filter:url(#filter1076);opacity:.3"/>
   <path transform="matrix(.26458333 0 0 .26458333 -1.9431973 230.58694)" d="m128.74023 65.185547c-1.66475-0.020032-3.32323 0.028717-4.97265 0.144531v0.001953c-19.79303 1.387465-38.20692 12.425132-48.541018 30.324219l8.121094 4.68555c11.678948-20.231247 35.431014-30.069135 57.994144-24.023441 17.06965 4.572742 30.17929 17.361696 35.55468 33.431641l-17.64257 6.79102c5.6392 5.33258 11.64361 10.65934 18.01367 15.98437 6.35181 5.25566 12.69186 10.24226 19.01953 14.95703 1.61086-7.77165 3.00715-15.73792 4.19336-23.89648 1.1522-8.2184 1.99512-16.17916 2.51953-23.882815l-17.35156 6.677735c-6.4471-18.794493-21.88353-33.762004-41.87696-39.119141-4.99132-1.337131-10.03699-2.016078-15.03125-2.076172zm-69.027339 39.562503c-1.610865 7.77161-3.007136 15.7398-4.19336 23.89843-1.152189 8.21859-1.995122 16.17912-2.519531 23.88282l17.347656-6.67774c6.44626 18.79645 21.884028 33.76564 41.878904 39.12305 6.6551 1.78322 13.40623 2.38904 20.00391 1.92578 19.79303-1.38758 38.21083-12.4213 48.54492-30.32031l-8.125-4.68555c-11.67895 20.23113-35.43103 30.06917-57.99414 24.02344-17.071528-4.57322-30.180395-17.36505-35.554688-33.4375l17.642579-6.79102c-5.63863-5.33199-11.642419-10.65985-18.011719-15.98437-6.351821-5.25566-12.691861-10.24241-19.019531-14.95703z" style="fill:#474747"/>
  </g>
 </g>
</svg>

<svg xmlns="http://www.w3.org/2000/svg" xmlns:xlink="http://www.w3.org/1999/xlink" width="256" height="256" version="1.1" viewBox="0 0 67.73 67.73">
 <defs>
  <linearGradient id="linearGradient1108" x1="296" x2="296" y1="-212" y2="236" gradientUnits="userSpaceOnUse" xlink:href="#linearGradient1013"/>
  <linearGradient id="linearGradient1013">
   <stop offset="0" style="stop-color:#ffffff"/>
   <stop style="stop-color:#ffffff;stop-opacity:0.09803922" offset=".125"/>
   <stop style="stop-color:#000000;stop-opacity:0.09803922" offset=".925"/>
   <stop offset="1" style="stop-color:#000000;stop-opacity:0.49803922"/>
  </linearGradient>
  <clipPath id="clipPath1082-3-452" clipPathUnits="userSpaceOnUse">
   <path d="M 361.9375,-212 C 507.2348,-212 528,-191.28677 528,-46.125 V 70.125 C 528,215.28618 507.2348,236 361.9375,236 H 214.0625 C 68.7652,236 48,215.28618 48,70.125 V -46.125 C 48,-191.28677 68.7652,-212 214.0625,-212 Z" style="fill:#8c59d9"/>
  </clipPath>
  <filter style="color-interpolation-filters:sRGB" id="filter1112" width="1.046" height="1.05" x="-.02" y="-.03">
   <feGaussianBlur stdDeviation="2.32"/>
  </filter>
  <filter style="color-interpolation-filters:sRGB" id="filter4569" width="1.023" height="1.025" x="-.01" y="-.01">
   <feGaussianBlur stdDeviation="1.16"/>
  </filter>
  <linearGradient id="linearGradient4290">
   <stop style="stop-color:#ffffff" offset="0"/>
   <stop style="stop-color:#009032" offset="1"/>
  </linearGradient>
  <filter style="color-interpolation-filters:sRGB" id="filter1076" width="1.087" height="1.107" x="-.04" y="-.05">
   <feGaussianBlur stdDeviation="2.719"/>
  </filter>
  <radialGradient id="radialGradient935" cx="33.867" cy="262.635" r="32.365" fx="33.867" fy="262.635" gradientTransform="matrix(1,0,0,0.93333326,0,17.509013)" gradientUnits="userSpaceOnUse" xlink:href="#linearGradient4290"/>
 </defs>
 <g transform="translate(0,-229.26666)">
  <path d="m 188.96876,43.999995 c 72.64865,0 83.03125,10.356615 83.03125,82.937505 v 58.125 c 0,72.58059 -10.3826,82.9375 -83.03125,82.9375 h -73.9375 C 42.382606,268 32.000006,257.64309 32.000006,185.0625 v -58.125 c 0,-72.58089 10.3826,-82.937505 83.031254,-82.937505 z" transform="matrix(0.26970778,0,0,0.26970778,-7.1289177,220.56049)" style="opacity:0.1;filter:url(#filter4569)"/>
  <path style="opacity:0.2;filter:url(#filter1112)" d="m 188.96876,45.999995 c 72.64865,0 83.03125,10.356615 83.03125,82.937505 v 58.125 c 0,72.58059 -10.3826,82.9375 -83.03125,82.9375 h -73.9375 C 42.382606,270 32.000006,259.64309 32.000006,187.0625 v -58.125 c 0,-72.58089 10.3826,-82.937505 83.031254,-82.937505 z" transform="matrix(0.26970778,0,0,0.26970778,-7.1289177,220.56049)"/>
  <path style="fill:url(#radialGradient935)" d="m 43.837426,232.42763 c 19.593907,0 22.394175,2.79326 22.394175,22.36889 v 15.67677 c 0,19.57555 -2.800268,22.36888 -22.394175,22.36888 h -19.94152 c -19.5939063,0 -22.3941744,-2.79333 -22.3941744,-22.36888 v -15.67677 c 0,-19.57563 2.8002681,-22.36889 22.3941744,-22.36889 z"/>
  <path d="M 361.9375,-212 C 507.2348,-212 528,-191.28677 528,-46.125 V 70.125 C 528,215.28618 507.2348,236 361.9375,236 H 214.0625 C 68.7652,236 48,215.28618 48,70.125 V -46.125 C 48,-191.28677 68.7652,-212 214.0625,-212 Z" clip-path="url(#clipPath1082-3-452)" transform="matrix(0.13485389,0,0,0.13485389,-4.9712557,261.01666)" style="opacity:0.4;fill:none;stroke:url(#linearGradient1108);stroke-width:8;stroke-linecap:round;stroke-linejoin:round"/>
  <g transform="translate(80.217142,2.9506453)">
   <path d="m -13.985544,259.68426 v -7.83839 c 0,-19.57555 -2.800271,-22.36888 -22.39417,-22.36888 h -9.970759 v 30.20727 z" style="opacity:0.1;fill:#ffffff"/>
   <path style="opacity:0.1;fill:#ffffff" d="m -78.715411,259.68426 v 7.83839 c 0,19.57555 2.80027,22.36888 22.394171,22.36888 h 9.970759 v -30.20727 z"/>
  </g>
  <g transform="translate(1.9431973,-1.320276)">
   <path d="M 128.74023 65.185547 C 127.07548 65.165515 125.417 65.214264 123.76758 65.330078 L 123.76758 65.332031 C 103.97455 66.719496 85.56066 77.757163 75.226562 95.65625 L 83.347656 100.3418 C 95.026604 80.110553 118.77867 70.272665 141.3418 76.318359 C 158.41145 80.891101 171.52109 93.680055 176.89648 109.75 L 159.25391 116.54102 C 164.89311 121.8736 170.89752 127.20036 177.26758 132.52539 C 183.61939 137.78105 189.95944 142.76765 196.28711 147.48242 C 197.89797 139.71077 199.29426 131.7445 200.48047 123.58594 C 201.63267 115.36754 202.47559 107.40678 203 99.703125 L 185.64844 106.38086 C 179.20134 87.586367 163.76491 72.618856 143.77148 67.261719 C 138.78016 65.924588 133.73449 65.245641 128.74023 65.185547 z M 59.712891 104.74805 C 58.102026 112.51966 56.705755 120.48785 55.519531 128.64648 C 54.367342 136.86507 53.524409 144.8256 53 152.5293 L 70.347656 145.85156 C 76.793916 164.64801 92.231684 179.6172 112.22656 184.97461 C 118.88166 186.75783 125.63279 187.36365 132.23047 186.90039 C 152.0235 185.51281 170.4413 174.47909 180.77539 156.58008 L 172.65039 151.89453 C 160.97144 172.12566 137.21936 181.9637 114.65625 175.91797 C 97.584722 171.34475 84.475855 158.55292 79.101562 142.48047 L 96.744141 135.68945 C 91.105511 130.35746 85.101722 125.0296 78.732422 119.70508 C 72.380601 114.44942 66.040561 109.46267 59.712891 104.74805 z" transform="matrix(0.26458333,0,0,0.26458333,-1.9431973,230.58694)" style="fill:#0f0000;filter:url(#filter1076);opacity:0.3"/>
   <path style="fill:#474747" d="M 128.74023 65.185547 C 127.07548 65.165515 125.417 65.214264 123.76758 65.330078 L 123.76758 65.332031 C 103.97455 66.719496 85.56066 77.757163 75.226562 95.65625 L 83.347656 100.3418 C 95.026604 80.110553 118.77867 70.272665 141.3418 76.318359 C 158.41145 80.891101 171.52109 93.680055 176.89648 109.75 L 159.25391 116.54102 C 164.89311 121.8736 170.89752 127.20036 177.26758 132.52539 C 183.61939 137.78105 189.95944 142.76765 196.28711 147.48242 C 197.89797 139.71077 199.29426 131.7445 200.48047 123.58594 C 201.63267 115.36754 202.47559 107.40678 203 99.703125 L 185.64844 106.38086 C 179.20134 87.586367 163.76491 72.618856 143.77148 67.261719 C 138.78016 65.924588 133.73449 65.245641 128.74023 65.185547 z M 59.712891 104.74805 C 58.102026 112.51966 56.705755 120.48785 55.519531 128.64648 C 54.367342 136.86507 53.524409 144.8256 53 152.5293 L 70.347656 145.85156 C 76.793916 164.64801 92.231684 179.6172 112.22656 184.97461 C 118.88166 186.75783 125.63279 187.36365 132.23047 186.90039 C 152.0235 185.51281 170.4413 174.47909 180.77539 156.58008 L 172.65039 151.89453 C 160.97144 172.12566 137.21936 181.9637 114.65625 175.91797 C 97.584722 171.34475 84.475855 158.55292 79.101562 142.48047 L 96.744141 135.68945 C 91.105511 130.35746 85.101722 125.0296 78.732422 119.70508 C 72.380601 114.44942 66.040561 109.46267 59.712891 104.74805 z" transform="matrix(0.26458333,0,0,0.26458333,-1.9431973,230.58694)"/>
  </g>
 </g>
</svg>
